icons/city-11.svg

<svg version="1.1" xmlns="http://www.w3.org/2000/svg" xmlns:xlink="http://www.w3.org/1999/xlink"
	 width="11px" height="11px" viewBox="0 0 11 11">
<path d="M9.7514,3h-0.75V1.25c0-0.13807-0.11193-0.25-0.25-0.25C8.75137,1,8.75133,1,8.7513,1h-0.5
	c-0.13807,0-0.25,0.11193-0.25,0.25V3h-0.75c-0.13807,0-0.25,0.11193-0.25,0.25v3.751H5.2518c-0.13862,0-0.251,0.11238-0.251,0.251
	v2.5c0.0011,0.13784,0.11315,0.249,0.251,0.249h4.5006c0.13768-0.00055,0.249-0.11232,0.249-0.25V3.25
	C10.0014,3.11193,9.88947,3,9.7514,3z M6.0009,8.0012h1v1h-1V8.0012z M9.0009,9.0012h-1v-1h1V9.0012z M9.0009,7.0012h-1v-1h1V7.0012
	z M9.0009,5.0012h-1v-1h1V5.0012z M6.0009,1.2507C6.00129,1.11263,5.88967,1.00039,5.7516,1C5.75133,1,5.75107,1,5.7508,1H3.25
	C3.11193,1,3,1.11193,3,1.25V2H2.25C2.11193,2,2,2.11193,2,2.25V3H1.25C1.11193,3,1,3.11193,1,3.25v6.5014
	c0,0.13807,0.11193,0.25,0.25,0.25H4V6.0009h2V1.25L6.0009,1.2507z M3,9.0013H2v-1h1V9.0013z M3,7.0013H2v-1h1V7.0013z M3,5.0013H2
	v-1h1V5.0013z M5,5.0013H4v-1h1V5.0013z M5,3.0013H4V2h1v1V3.0013z"/>
</svg>

<svg xmlns="http://www.w3.org/2000/svg" width="11.0016" height="11.0016" viewBox="0 0 11.0016 11.0016">
  <title>city-11</title>
  <path d="M9.7514,3h-0.75V1.25A0.25,0.25,0,0,0,8.7513,1h-0.5a0.25,0.25,0,0,0-.25.25V3h-0.75a0.25,0.25,0,0,0-.25.25V7.001H5.2518a0.251,0.251,0,0,0-.251.251v2.5a0.251,0.251,0,0,0,.251.249H9.7524a0.25,0.25,0,0,0,.249-0.25V3.25A0.25,0.25,0,0,0,9.7514,3ZM6.0009,8.0012h1v1h-1v-1Zm3,1h-1v-1h1v1Zm0-2h-1v-1h1v1Zm0-2h-1v-1h1v1Zm-3-3.7505A0.25,0.25,0,0,0,5.7508,1H3.25A0.25,0.25,0,0,0,3,1.25V2H2.25A0.25,0.25,0,0,0,2,2.25V3H1.25A0.25,0.25,0,0,0,1,3.25V9.7514a0.25,0.25,0,0,0,.25.25h2.75V6.0009h2V1.25ZM3,9.0013H2v-1H3v1Zm0-2H2v-1H3v1Zm0-2H2v-1H3v1Zm2,0h-1v-1h1v1Zm0-2h-1V2h1V3Z"/>
</svg>
